X: 2295
T: Back To The Island
R: reel
M: 4/4
K: Edorian
B2>A2 BE E2|F/E/D AD FA A2|B2>c2 d2 de|fd ef dB A=c|
BA FA BE E2|ED AD FA A2|B2>c2 d2 de|fd BA FE E2|
E2 BA BE E2|F2 DE FA A2|B2>c2 d2 de|fd ef dB AB|
BA FA BE E2|ED AD FA A2|B2 Bc d2 de|fd BA FE E2||
Be fe Be fe|A2>F2 A3 z|Be e2 Be fe|AB AB FE E2|
Be e2 B2 fe|AB AF A3 z|B3 z B3 z FA|B/c/d AF fe e2|
Be e2 Be fe|A2>F2 A3 z|Be fe Be fe|A2 BA Fe e2|
Be e2 Be fe|A2>F2 A3 z|B3 z BA FA|B2 AF FE ED||

